X:1
T:Title
%%score { ( 1 3 ) | 2 }
L:1/8
Q:1/4=114
M:6/4
K:Ab
V:1 treble nm="Grand Piano"
V:3 treble 
V:2 bass 
V:1
 [CA]2 [CG]2 [CF]2 [CE]4 [CF]2 | [DG]12 | B2 G2 F2 E4 B2 | [Ec]12[K:bass] | c2 d2 c2 =A2 B2 c2 | %5
w: Wendell~P.~Loveless * * * *|||||
 B2 B2 A2 G4 F2 | E2 A2 c2 [Ge]4 [DEG]2 | [CEA]12 |] %8
w: |||
V:2
 [A,,E,]2 [A,,E,]2 [A,,E,]2 [A,,A,]4 [A,,A,]2 | [E,B,]4 E,2 E,6 | %2
 [E,G,D]2 [E,B,D]2 [E,A,D]2 [E,G,D]4 [E,G,D]2 | [A,,A,]4 A,,2 A,,6 | %4
 [F,=A,E]2 [F,A,E]2 [F,A,E]2 [F,CE]2[K:treble] [G,CE]2 [A,CE]2 | %5
 [B,DF]2 [B,DF]2 [B,D]2[K:bass] [G,_C=D]4 [G,CD]2 | [A,C]2 [A,CE]2 [A,CE]2 [E,D]4 E,2 | A,,12 |] %8
V:3
 x12 | z4 G,2 B,6 | x12 | z4[K:bass] E,2 A,6 | x12 | x12 | x12 | x12 |] %8

